!!!COM: Haydn, Franz Joseph
!!!OTL: String Quartet in D Major
!!!OPS: Opus 17
!!!ONM: No. 6
!!!OMD: Menuetto
!!!OMV: 2
!!!SCT: H III:30
!!!SCA: Thematisch-bibliographisches Werkevererzeichnis (A. van Hoboken)
!!!YOR: Trautwein Edition
!!!EED: Frances Bennion
!!!ENC: Frances Bennion
!!!CDT: 1732/3/31/-1809/5/31/
!!!CNT: Oesterreich
!!!YEC: Copyright (c) 1994, 2000 Center for Computer Assisted Research in the Humanities
!!!YEM: Rights to all derivative editions reserved.
!!!YEM: Refer to licensing agreement for further details.
!!!YEN: United States of America
**kern	**kern	**kern	**kern
*k[f#c#]	*k[f#c#]	*k[f#c#]	*k[f#c#]
*D:	*D:	*D:	*D:
*clefG	*clefG	*clefC3	*clefF4
*M3/4	*M3/4	*M3/4	*M3/4
=0-	=0-	=0-	=0-
2r	2r	2r	2r
4aa	4ff#	4r	4r
=1	=1	=1	=1
4gg	4ee	2r	2r
4ff#	4dd	.	.
4ee	4cc#	4g	4AA
=2	=2	=2	=2
4dd	[2.dd	2.f#	[2.D
4ddd	.	.	.
4ccc#	.	.	.
=3	=3	=3	=3
2bb	2.dd_	2g	2.D_
4aa	.	4f#	.
=4	=4	=4	=4
2gg	4dd]	4e	2.D]
.	4cc#	4a	.
4ff#	4dd	4d	.
=5	=5	=5	=5
8ff#	2.b	2.g	2.GG
8dd#	.	.	.
8ee	.	.	.
8ff#	.	.	.
8gg	.	.	.
8ee	.	.	.
=6	=6	=6	=6
2cc#	4a	4f#	[2.AA
.	4g	4e	.
8dd	4f#	4d	.
16cc#	.	.	.
16dd	.	.	.
=7	=7	=7	=7
4ee	2e	4c#	4AA]
4g	.	4A	4C#
4f#	4d	4A	4D
=8	=8	=8	=8
4e	2c#	2A	4A
4a	.	.	4AA
4a	4e	4A	4AA
=9	=9	=9	=9
4dd	4f#	4A	4AA
8cc#	4d	4A	4AA
8b	.	.	.
8a	4B	4A	4AA
8g#	.	.	.
=10	=10	=10	=10
8g#	2c#	4A	4AA
8a	.	.	.
8cc#	.	4A	4AA
8a	.	.	.
8ee	8c#	4A	4AA
8cc#	8e	.	.
=11	=11	=11	=11
4dd	4f#	4A	4AA
8cc#	4d	4A	4AA
8b	.	.	.
8a	4B	4A	4AA
8g#	.	.	.
=12	=12	=12	=12
2a	2c#	2A	2AA
4aa	4ff#	4r	4r
=13	=13	=13	=13
4gg	4ee	2r	2r
4ff#	4dd	.	.
[4ccc	[4aa	4d	4F#
=14	=14	=14	=14
4ccc]	4aa]	4d	2G
4bb	4gg	4d	.
[4aa	[4ff#	4d#	4BB
=15	=15	=15	=15
4aa]	4ff#]	2B	2E
4gg	4ee	.	.
4ff#	4dd#	4A	4F#
=16	=16	=16	=16
8ff#	2b	2G	2G
8dd#	.	.	.
8ee	.	.	.
8ff#	.	.	.
8gg	4r	4r	4r
8ee	.	.	.
=17	=17	=17	=17
2.dd	4r	4r	4r
.	4g	4e	4A
.	4g	4e	4A
=18	=18	=18	=18
4cc#	4g	4e	4A
4r	4r	2r	2r
4aa	4ff#	.	.
=19	=19	=19	=19
4gg	4ee	2A	2D
4ff#	4dd	.	.
4ddd	4dd	4D	4F#
=20	=20	=20	=20
4bb	4dd	4D	2.G
4ggg	4bb	2r	.
8fff#	8aa	.	.
8eee	8gg	.	.
=21	=21	=21	=21
2ddd	2ff#	4r	4A
.	.	4A	4A
8eee	8gg	4A	4A
8ccc#	8ee	.	.
=22	=22	=22	=22
4ddd	4ff#	4d	4D
4r	2r	2r	4DD
12d	.	.	4r
12f#	.	.	.
12a	.	.	.
=23	=23	=23	=23
12g	2r	2r	2r
12f#	.	.	.
12e	.	.	.
12d	.	.	.
12c#	.	.	.
12B	.	.	.
12A	4e	4A	4C#
12a	.	.	.
12g	.	.	.
=24	=24	=24	=24
12f#	4f#	4A	4D
12dd	.	.	.
12cc#	.	.	.
12b	2r	2r	2r
12a	.	.	.
12g	.	.	.
12d	.	.	.
12f#	.	.	.
12a	.	.	.
=25	=25	=25	=25
12g	2r	2r	2r
12f#	.	.	.
12e	.	.	.
12d	.	.	.
12c#	.	.	.
12B	.	.	.
12A	4e	4A	4C#
12a	.	.	.
12g	.	.	.
=26	=26	=26	=26
2f#	2f#	2A	4D
.	.	.	4DD
12d	4r	4r	4r
12f#	.	.	.
12a	.	.	.
=27	=27	=27	=27
12dd	2r	2r	2r
12cc#	.	.	.
12b	.	.	.
12ff#	.	.	.
12ee	.	.	.
12dd	.	.	.
12cc#	4f# 4a	4B	4D#
12b	.	.	.
12a	.	.	.
=28	=28	=28	=28
12g#	4g#	4B	4E
12ff#	.	.	.
12dd#	.	.	.
12ee	4r	4r	4r
12ddd	.	.	.
12bb	.	.	.
12gg#	4dd	4B	4E
12ee	.	.	.
12dd	.	.	.
=29	=29	=29	=29
12cc#	4cc#	4A	4A
12dd	.	.	.
12ee	.	.	.
4a	4c#	4e	4E
4g#	4B	4d	4E
=30	=30	=30	=30
2a	2A	2c#	4A
.	.	.	4AA
12a	4r	4r	4r
12ff#	.	.	.
12aa	.	.	.
=31	=31	=31	=31
12gg	2.r	2.r	2.r
12ee	.	.	.
12b-	.	.	.
12a	.	.	.
12ff#	.	.	.
12aa	.	.	.
12gg	.	.	.
12ee	.	.	.
12b-	.	.	.
=32	=32	=32	=32
12a	2.r	2.r	2.r
12ff#	.	.	.
12aa	.	.	.
12gg	.	.	.
12ee	.	.	.
12b-	.	.	.
12a	.	.	.
12ff#	.	.	.
12aa	.	.	.
=33	=33	=33	=33
12gg	2.e	[2.A	2.C#
12ff#	.	.	.
12ee	.	.	.
12dd	.	.	.
12cc#	.	.	.
12b	.	.	.
12a	.	.	.
12ee	.	.	.
12g	.	.	.
=34	=34	=34	=34
12f#	4f#	2A]	4D
12cc#	.	.	.
12dd	.	.	.
12a	4d	.	4F#
12b	.	.	.
12cc	.	.	.
12b	4d	4G	4G
12f#	.	.	.
12g	.	.	.
=35	=35	=35	=35
12e	2.B	2G	2.GG
12g	.	.	.
12f#	.	.	.
12e	.	.	.
12b	.	.	.
12a	.	.	.
12g	.	8B	.
12f#	.	.	.
.	.	8G	.
12e	.	.	.
=36	=36	=36	=36
2c#	2A	2E	4AA
.	.	.	4A
12d	4r	4r	4r
12f#	.	.	.
12a	.	.	.
=37	=37	=37	=37
12g	2r	2r	2r
12f#	.	.	.
12e	.	.	.
12d	.	.	.
12c#	.	.	.
12B	.	.	.
12A	4e	4A	4C#
12a	.	.	.
12g	.	.	.
=38	=38	=38	=38
12f#	4f#	4A	4D
12dd	.	.	.
12cc#	.	.	.
12b	2r	2r	2r
12a	.	.	.
12g	.	.	.
12d	.	.	.
12f#	.	.	.
12a	.	.	.
=39	=39	=39	=39
12g	2r	2r	2r
12f#	.	.	.
12e	.	.	.
12d	.	.	.
12c#	.	.	.
12B	.	.	.
12A	4e	4A	4C#
12a	.	.	.
12g	.	.	.
=40	=40	=40	=40
12f#	4f#	4A	4D
12a	.	.	.
12dd	.	.	.
12ff#	4r	4r	4r
12aa	.	.	.
12ccc#	.	.	.
12ddd	4d	4f#	4F#
12aa	.	.	.
12ff#	.	.	.
=41	=41	=41	=41
12bb	2d	4g	4G
12gg	.	.	.
12ee	.	.	.
4a	.	4f#	4A
4ee	4c#	4g	4AA
=42	=42	=42	=42
2dd	2d	4f#	4D
.	.	4D	4DD
4r	4r	4r	4r
==	==	==	==
*-	*-	*-	*-
!!!RWG1: This file contains only pitch and duration data.
!!!RWG2: Transposing instruments are not transposed.
!!!RWG3: Spines may have incompatible meters.
!!!RWG4: Durations of rests and tied notes may be interpreted.
!!!RWG: Key is interpreted using the Humdrum key tool.
!!!GTL: 6 Divertimentos
!!!AFT: stage1
!!!END: 1997/04/15
!!format changes:
!!content changes:
!!public access: complete
!!!KEY: 2940998531
!!!EMD: Converted from MuseData to Humdrum Dec 16, 2000, by Andreas Kornstaedt using muse2kern.
